svgs/bdt.svg

<svg xmlns="http://www.w3.org/2000/svg" viewBox="0 0 192 192"><path d="M86.475 175.528c-27.93-2.694-54.295-22.832-64.855-49.537-8.11-20.505-7.138-46.484 2.453-65.618 4.493-8.962 11.907-18.135 19.877-24.591 2.027-1.642 3.837-3.205 4.023-3.474.189-.274 13.679 12.856 30.558 29.742l30.221 30.231-6.231 6.244c-3.427 3.435-6.376 6.19-6.554 6.122-.178-.067-10.984-10.633-24.013-23.481C58.925 68.319 48.09 57.742 47.876 57.662c-.591-.221-5.453 7.336-7.684 11.945-7.814 16.139-7.681 38.154.327 54.184 3.74 7.485 12.194 17.306 19.561 22.723 20.354 14.967 50.793 15.07 71.6.243 7.296-5.199 15.097-14.023 19.123-21.63 7.754-14.655 9.142-34.397 3.504-49.846-5.074-13.904-15.875-26.456-28.948-33.642-5.502-3.024-16.326-6.71-19.707-6.71-.242 0-.498 3.728-.57 8.309l-.132 8.308H87.129V16.387l9.392.054c10.203.06 16.447.934 24.222 3.39 22.982 7.26 42.822 26.558 50.876 49.486 4.737 13.486 5.607 31.471 2.216 45.789-4.569 19.295-16.53 36.327-33.504 47.71-15.633 10.484-33.423 14.683-53.856 12.712Zm5.952-26.88c-2.638-1.218-4.128-2.975-4.814-5.675-.983-3.874.492-8.064 3.57-10.138 6.893-4.646 15.623 2.077 13.29 10.234-1.498 5.242-7.127 7.849-12.046 5.579Zm-41.902-43.622c-.265-.096-1.061-.303-1.769-.458-3.005-.661-6.144-4.918-6.167-8.366-.025-3.793 2.699-7.435 6.38-8.527 5.883-1.748 11.911 2.513 11.911 8.417 0 2.111-1.262 5.051-2.718 6.328-1.918 1.684-6.181 3.139-7.637 2.606Zm88.062-.239c-6.441-1.535-9.326-8.278-5.807-13.573 2.777-4.18 10.088-5.086 13.774-1.708 5.042 4.622 3.071 13.079-3.503 15.031-1.317.391-2.518.689-2.668.661a70.908 70.908 0 0 1-1.796-.411Z"/></svg>

<svg
    xmlns="http://www.w3.org/2000/svg"
    viewBox="0 0 192 192"
    id="vector">
    <path
        id="path"
        d="M 86.475 175.528 C 58.545 172.834 32.18 152.696 21.62 125.991 C 13.51 105.486 14.482 79.507 24.073 60.373 C 28.566 51.411 35.98 42.238 43.95 35.782 C 45.977 34.14 47.787 32.577 47.973 32.308 C 48.162 32.034 61.652 45.164 78.531 62.05 L 108.752 92.281 L 102.521 98.525 C 99.094 101.96 96.145 104.715 95.967 104.647 C 95.789 104.58 84.983 94.014 71.954 81.166 C 58.925 68.319 48.09 57.742 47.876 57.662 C 47.285 57.441 42.423 64.998 40.192 69.607 C 32.378 85.746 32.511 107.761 40.519 123.791 C 44.259 131.276 52.713 141.097 60.08 146.514 C 80.434 161.481 110.873 161.584 131.68 146.757 C 138.976 141.558 146.777 132.734 150.803 125.127 C 158.557 110.472 159.945 90.73 154.307 75.281 C 149.233 61.377 138.432 48.825 125.359 41.639 C 119.857 38.615 109.033 34.929 105.652 34.929 C 105.41 34.929 105.154 38.657 105.082 43.238 L 104.95 51.546 L 87.129 51.546 L 87.129 16.387 L 96.521 16.441 C 106.724 16.501 112.968 17.375 120.743 19.831 C 143.725 27.091 163.565 46.389 171.619 69.317 C 176.356 82.803 177.226 100.788 173.835 115.106 C 169.266 134.401 157.305 151.433 140.331 162.816 C 124.698 173.3 106.908 177.499 86.475 175.528 Z M 92.427 148.648 C 89.789 147.43 88.299 145.673 87.613 142.973 C 86.63 139.099 88.105 134.909 91.183 132.835 C 98.076 128.189 106.806 134.912 104.473 143.069 C 102.975 148.311 97.346 150.918 92.427 148.648 Z M 50.525 105.026 C 50.26 104.93 49.464 104.723 48.756 104.568 C 45.751 103.907 42.612 99.65 42.589 96.202 C 42.564 92.409 45.288 88.767 48.969 87.675 C 54.852 85.927 60.88 90.188 60.88 96.092 C 60.88 98.203 59.618 101.143 58.162 102.42 C 56.244 104.104 51.981 105.559 50.525 105.026 Z M 138.587 104.787 C 132.146 103.252 129.261 96.509 132.78 91.214 C 135.557 87.034 142.868 86.128 146.554 89.506 C 151.596 94.128 149.625 102.585 143.051 104.537 C 141.734 104.928 140.533 105.226 140.383 105.198 C 140.232 105.171 139.424 104.986 138.587 104.787 Z"
        fill="#000000"
        stroke-width="12"/>
</svg>
